!!!COM: Mozart, Wolfgang Amadeus
!!!OTL: Musikalische Würfelspiele, Kontre-Tänze
!!!SCA: K<sup>6</sup> Anh. C30.01 (K<sup>3</sup> Anh. 294d)
**kern	**kern
*staff2	*staff2
*clefF4	*clefG2
*M2/4	*M2/4
*MM110	*MM110
*>[A,A1,A,A2,B]	*>[A,A1,A,A2,B]
*>norep[A,A2,B]	*>norep[A,A2,B]
*>A	*>A
=10	=10
4C	8gg
.	8ee
4r	8cc
.	8cc
=114	=114
4C	8gg
.	16aa
.	16gg
4r	16ff
.	16ee
.	16dd
.	16cc
=100	=100
4GG	16b
.	16a
.	16g
.	16a
4GG	16b
.	16cc
.	16dd
.	16b
=15	=15
4C	16cc
.	16ee
.	16gg
.	16ee
4C	8cc
.	8cc
=25	=25
4D	8dd
.	8ff#
4C 4D	8aa
.	8ff#
=27	=27
4BB 4G	16aaQ
.	16gg
.	16ff#
.	16gg
4BB	16dd
.	16gg
.	16dd
.	16b
=73	=73
4C	8ee
.	8gg
4D	8ff#
.	8aa
=102	=102
*>A1	*>A1
16BB	4g 4b 4gg
16GG	.
16BB	.
16D	.
16G	4r
16F	.
16E	.
16D	.
=102:|!	=102:|!
*>A2	*>A2
16BB	4g 4b 4gg
16GG	.
16BB	.
16D	.
16GG	4r
16AA	.
16BB	.
16C#	.
=22||	=22||
*>B	*>B
4D	16aa
.	16bb
.	16aa
.	16gg
4C 4D	16ggQ
.	16ff#
.	16ee
.	16dd
=3	=3
4BB 4G	16aaQ
.	16gg
.	16bb
.	16gg
4GG	4dd
=29	=29
4C	16ee
.	16cc
.	16g
.	16cc
4C	16ee
.	16cc
.	16gg
.	16ee
=107	=107
16BB	8dd
16D	.
16G	4b
16D	.
16G	.
16F	.
16E	8g
16D	.
=94	=94
16C	8cc
16E	.
16G	8ee
16E	.
16C	8gg
16E	.
16G	8ee
16E	.
=110	=110
8E	8cc
16E	8ee
16E	.
8E	8cc
8C	8g
=17	=17
4GG	16dd
.	16ee
.	16ff
.	16ee
4GG	16ff
.	16dd
.	16cc
.	16b
=65	=65
4C	8cc
.	8cc
4CC	4cc
==	==
*-	*-
